X:1
T:The LORD God Reigns in Majesty
T:Text: Psalm 99; vers. Psalter. 1912 Tune: James McGranahan, 1883
T:CMD NONE BUT CHRIST www.hymnary.org/text/the_lord_god_reigns_in_majesty
T:The LORD God Reigns in Majesty
T:This hymn is in the public domain. You may freely use this score for personal and congregational worship. If you reproduce the score, please credit Hymnary.org as the source. 
T:This hymn is in the public domain. You may freely use this score for personal and congregational worship. If you reproduce the score, please credit Hymnary.org as the source. 
Z:This hymn is in the public domain. You may freely use this score for personal and congregational worship. If you reproduce the score, please credit Hymnary.org as the source.
%%score ( 1 2 ) ( 3 4 )
L:1/8
M:4/4
K:F
V:1 treble nm="SOPRANO ALTO" snm="S. A."
V:2 treble 
V:3 bass nm="TENOR BASS" snm="T. B."
V:4 bass 
V:1
"^1""^2""^3" CF | A2 A2 A2 FA | c2 c2 c2 cA | G3 G G2 FG | A6 | CF | A2 A2 A2 FA | c2 c2 c2 cA | %8
w: The *|LORD God reigns in *|maj- es- ty; let *|all the na- tions *|quake.|He *|dwells be- tween the *|cher- u- bim; let *|
w: The *|might- y King loves _|jus- tice well and *|eq- ui- ty or- *|dains.|He *|rules his peo- ple *|right- eous- ly and *|
w: When _|priests and proph- ets *|called on God, he *|their pe- ti- tions _|heard.|His *|cloud- y pil lar *|led them on, and *|
 G3 c c=B AB | c6 | c2 | c3 c cA dc | c3 B A2 FG | A3 A Ac BA | G6 |1 C2 | F3 F A3 A | %17
w: earth's foun- da- * tions _|shake.|Su-|preme in Zi- * on *|is the LORD ex- *|alt- ed glo- * rious- *|ly.|All|na- tions, praise his|
w: faith- ful- ness * main- *|tains.|In|wor- ship at * his *|foot- stool bow, let *|him ex- alt- * ed *|be.|O|mag- ni- fy the|
w: they o- beyed _ his *|word.|Though|sen- ding judg- * ments _|for their sins, he *|par- doned gra- * cious- *|ly.|Ex-|alt the LORD and|
 cA Bc d2 d2 | cA BG F2 E2 | F6 x2 |] %20
w: name _ with _ awe: the|Ho- * ly * One is|he.|
w: LORD * our * God: the|Ho- * ly * One is|he.|
w: wor- * ship * him: the|Ho- * ly * One is|he.|
V:2
 C2 | F2 F2 E2 F2 | F2 E2 F2 F2 | G2 F2 FE DE | F6 | C2 | F2 G2 F2 F2 | F2 E2 F2 F2 | F2 E2 F2 F2 | %9
 (G2 A2 _B2) | E2 | F2 E2 F2 F2 | F2 E2 F2 FE | F3 F F2 GF | (F2 ED E2) |1 C2 | F3 F F3 F | %17
 F2 F2 F2 E2 | F2 D2 C2 C2 | C6 x2 |] %20
V:3
 A,2 | C2 D2 C2 A,2 | A,2 G,2 F,2 A,C | D2 B,2 C2 C2 | C6 | A,2 | C2 ^C2 D2 A,2 | =C2 B,2 A,2 C2 | %8
 D2 G,2 G,2 G,2 | C6 | C2 | C2 B,2 A,C B,C | D2 C2 C2 C2 | C3 C D2 C2 | C6 |1 C2 | C2 B,2 C3 C | %17
 B,2 B,2 B,2 B,2 | C2 DB, A,2 G,2 | A,6 x2 |] %20
V:4
 F,2 | F,2 D,2 A,,2 D,2 | C,2 B,,2 A,,2 F,2 | B,2 G,2 C,2 C,2 | F,6 | F,2 | F,2 E,2 D,2 D,2 | %7
 A,,2 G,,2 F,,2 A,,2 | =B,,2 C,2 D,2 D,2 | (E,2 F,2 G,2) | B,2 | A,2 G,2 F,2 B,A, | %12
 G,2 C,2 F,2 A,G, | F,2 E,2 D,2 E,F, | C,6 |1 B,2 | A,2 G,2 F,2 _E,2 | D,2 D,C, B,,2 G,,2 | %18
 A,,2 B,,2 C,2 C,2 | F,,6 x2 |] %20

